X:109 
T:Lighting the Lamps* (reel) 
S:Sheahan MS
F:file ID: cre.4/109light_L
B:CRE4.158 - gan ainm
L:1/8
%Q:180
M:4/4
R:reel
K:D % source key C
c|d2cd BFF2|d2cd egfe|dBcA BFFA|[BB,]EEF GAB:|
e|defg a^gaf|dfaf ecAc|defg a2 ^ga|bgaf ecAc|
defg a^gaf|dfaf ecAc|dcBA Bcde|fgaf egfe|"final"d8||

%%%

